X:485
T: Maam Cross (with piano acc.)
C: BB
R: jig
Q: 1/8=320
M: 6/8
L: 1/8
V: 1 program 1 21 %acc
V: 2 volume=70 clef=bass m=D program 1 01
K: Am
[V:1] E| "Am"ABc AGE | "Dm"FAd "E"B^GE | "Dm"FED "E"^GBd | "Am"cBA "E"B2 e |
[V:2] z|A,,2[ACE]E,,2[ACE]|D,,2[AFD]E,,2[E^GB]|D,,2[AFD]E,,2[E^GB]|A,,2[ACE]E,,2[E^GB]|
%
[V:1] "Am"a^ga "Dm"fed |"G7"Bdf "Am"ecA |"E"B^GB "Dm"AFD | "E"E^GB "Am"A2 :|
[V:2] A,,2[ACE]D,2[AFD]|G,,2[FBD]A,,2[ACE]|E,2[E^GB]D,2[AFD]|E,2[E^GB]A,,2:|
%
[V:1][K: A] e | "A"aga "D"fdf | "A"ece "Bm"dcB |"A"Ace aga | "Bm"fBB "E"B2e |
[V:2][K: A] z |A,,2[ACE]D,2[AFD]|A,,2[ACE]B,,2[FBD]|A,,2[ACE]E,,2[ACE]|\
B,,2[FBD]E,2[E^GB]|
%
[V:1] "A"a2e "D"f2d | "A"ecA "Bm"dcB | "D"AFD "A"Edc |"E"BAG "A"A2 :|
[V:2] A,,2[ACE]D,2[AFD]|A,,2[ACE]B,,2[FBD]|D,2[AFD]A,,2[ACE]|E,2[EGB][A,2^C2E2] :|
%%%%%%%%%%%%%%%%%%%%%%%%%%%%%%%%%%%%%%%%%%%
